X:537
T:
S:Uppt. efter »Florsen» i Burs.
N:G-strängen stämmes i A.
R:vals
O:Gotland, Burs
M:3/4
L:1/8
K:D
([A,D]F) (Ad) f2|(fe) (ce) A2|([A,E]A) (ce) g2|(ba) (fd) (AF)|
[A,D]F (Ad) f2|(fe) (ce) A2|(gf) (gA) (ce)|1 d4 z2:|2 d4 de
|:f2 [A,D]2 f2|(fe) (cB) A2|g2 [A,E]2 g2|(ed) (cB) A2|
[A,DAf]2 [A,DAf]2 [A,DAf]2|(fe) (ce) a2|(af) (gA) (ce)| % pizz / col arco
[1 d4 de:|2 d6:|

